material/.icons/material/coffee-to-go-outline.svg

<svg xmlns="http://www.w3.org/2000/svg" viewBox="0 0 24 24"><path d="M3 3v8a4 4 0 004 4h4a4 4 0 004-4v-1h2c1.11 0 2-.89 2-2V5a2 2 0 00-2-2H3m2 2h8v6a2 2 0 01-2 2H7a2 2 0 01-2-2V5m10 0h2v3h-2V5m1.67 8.83l-1.41 1.41L17 17H3v2h14l-1.74 1.76 1.41 1.41L20.84 18l-4.17-4.17z"/></svg>

<?xml version="1.0" encoding="UTF-8"?><!DOCTYPE svg PUBLIC "-//W3C//DTD SVG 1.1//EN" "http://www.w3.org/Graphics/SVG/1.1/DTD/svg11.dtd"><svg xmlns="http://www.w3.org/2000/svg" xmlns:xlink="http://www.w3.org/1999/xlink" version="1.1" id="mdi-coffee-to-go-outline" width="24" height="24" viewBox="0 0 24 24"><path d="M3 3V11A4 4 0 0 0 7 15H11A4 4 0 0 0 15 11V10H17C18.11 10 19 9.11 19 8V5C19 3.9 18.11 3 17 3H3M5 5H13V11A2 2 0 0 1 11 13H7A2 2 0 0 1 5 11V5M15 5H17V8H15V5M16.67 13.83L15.26 15.24L17 17H3V19H17L15.26 20.76L16.67 22.17L20.84 18L16.67 13.83Z" /></svg>
